X:1
T:Title
%%score { 1 | ( 2 3 ) }
L:1/8
Q:1/4=90
M:2/4
K:F
V:1 treble nm="Grand Piano"
V:2 bass 
V:3 bass 
V:1
 AA _A=A | B2 A2 | [FA]G FE | F4 | cc =Bc | d2 c2 | FA GF | [EG]4 | [EB][EB] [Ac][GB] | %9
w: John~R.~Sweney * * *|||||||||
 [GB]2 [FA]2 | [Fd][Fd] [Fe][Fd] | [Fc]4 | [Af]A Bc | ed B[B,DG] | [A,CF]2 [CA]>G | F4 | %16
w: |||||||
 [EG][_E^F] [=EG][=FA] | [Ec]2 [GB]2 | AG AB | c4 | dd ed | d2 c2 | c=B A[FB] | [Ec]4 | %24
w: ||||||||
 [EB][EB] [Ac][GB] | [GB]2 [FA]2 | [Fd][Fd] [Fe][Fd] | [Fc]4 | [Af]A Bc | ed B[B,DG] | %30
w: ||||||
 [A,CF]2 [CA]>G |[M:6/4] .F6 z6 |] %32
w: ||
V:2
 [F,CF][F,CF] [F,=B,F][F,CF] | [F,DF]2 [F,CF]2 | [C,C][C,B,C] [C,A,C][C,G,C] | [F,A,C]4 | %4
 [F,A,F][F,A,F] [F,_A,F][F,=A,F] | [F,B,F]2 [F,A,F]2 | [F,A,C][F,C] [D,=B,D][D,B,D] | [C,C]4 | %8
 [C,G,][C,G,] [D,C][E,C] | [F,C]2 [F,C]2 | [B,,B,][B,,B,] [B,,B,][D,B,] | [F,A,]4 | %12
 [F,C][K:treble][F,CF] [G,CE][A,CF] | [B,F][B,F] [B,DF][K:bass]B,, | C,2 z z/ B,/ | [F,A,C]4 | %16
 [C,C][C,C] [C,C][C,C] | [C,G,]2 [E,C]2 | [F,CF][B,CE] [A,CF][G,CE] | [F,A,F]4 | %20
 [B,F][B,F] [B,CF][B,F] | [F,B,F]2 [F,A,F]2 | [G,DF][G,DF] [G,DF][K:bass][G,,G,] | [C,G,]4 | %24
 [C,G,][C,G,] [D,C][E,C] | [F,C]2 [F,C]2 | [B,,B,][B,,B,] [B,,B,][D,B,] | [F,A,]4 | %28
 [F,C][K:treble][F,CF] [G,CE][A,CF] | [B,F][B,F] [B,DF][K:bass]B,, | C,2 z z/ B,/ | %31
[M:6/4] .[F,A,C]6 z6 |] %32
V:3
 x4 | x4 | x4 | x4 | x4 | x4 | x4 | x4 | x4 | x4 | x4 | x4 | x[K:treble] x3 | x3[K:bass] x | %14
 z2 C,2 | x4 | x4 | x4 | x4 | x4 | x4 | x4 | x3[K:bass] x | x4 | x4 | x4 | x4 | x4 | %28
 x[K:treble] x3 | x3[K:bass] x | z2 C,2 |[M:6/4] x12 |] %32

